icons/pickleball.svg

<?xml version="1.0" encoding="UTF-8"?>
<svg viewBox="0 0 15 15" version="1.1" xmlns="http://www.w3.org/2000/svg" xmlns:xlink="http://www.w3.org/1999/xlink">
  <path d="m6.75 14c.75.25.75.25 1.5 0v-4c0-.75.75-1 1.5-1.5 1-.5 1-1.5 1-2.5v-3c0-1-1-2-2-2h-2.5c-1 0-2 1-2 2v3c0 1 0 2 1 2.5.75.5 1.5.75 1.5 1.5z
M12 9a1 1 0 002 0 1 1 0 00-2 0z"/>
</svg>

<?xml version="1.0" encoding="UTF-8"?>
<svg viewBox="0 0 15 15" version="1.1" xmlns="http://www.w3.org/2000/svg" xmlns:xlink="http://www.w3.org/1999/xlink">
  <path d="M6.75 14C7.5 14.25 7.5 14.25 8.25 14V10C8.25 9.25 9 9 9.75 8.5C10.75 8 10.75 7 10.75 6V3C10.75 2 9.75 1 8.75 1H6.25C5.25 1 4.25 2 4.25 3V6C4.25 7 4.25 8 5.25 8.5C6 9 6.75 9.25 6.75 10ZM12 9A1 1 0 0 0 14 9A1 1 0 0 0 12 9Z"/>
</svg>
